X:1166
T:Coldstream March.
M:C
L:1/8
Q:1/2=76
I: :: :|
Z:Jack Campin * www.campin.me.uk * 2009
K:D
A>F|D2 d>A F2 A>F|G2  g4     e>g|f>a d>f e>g c>e|d2  d>d d2
A>F|D2 d>A F2 A>F|G2  g4     e>g|f>a d>f e>g c>e|d2  d>d d2:|
A>c|e2 c>e g2 e>g|f>a d>f e2 A>c|e2  c>e g2  e>g|f>a d>f e2
A>F|D2 d>A F2 A>F|G2  g4     e>g|f>a d>f e>g c>e|d2  d>d d2:|

